X:18024
T:Roslin Castle
T:Roslyn Castle; Rosslyn Castle; Rosslin Castle
T:The House of Glamis
R:Air
C:Trad.
O:Scotland
Z:Paul Hardy's Session Tunebook 2015 (see www.paulhardy.net). Creative Commons cc by-nc-sa licenced.
M:4/4
L:1/8
Q:1/4=72
K:Em
G>F|"Em"E2ec B2AB|"Am"cBAG "D"F2G>F|"Em"E2ef g2fe|"D"defd "Bm"B2AB|
"Am"cBAG "Bm"F2GA|"Em"BGFE "B7"^d2ef|"Em"gef^d "Bm"eBA/2c/2B/2A/2|"Em"G2"B7"F2 "Em"E2:|
|:B2|"Em"e2ef g2fe|b>aga "B7"f2e^d|"Em"eBef g2fe|b>aga "B7"f2AB|
"C"cBAG "Bm"F2GA|"Em"BGFE "B7"^d2ef|"Em"gef^d "Bm"eBA/2c/2B/2A/2|"Em"G2"B7"F2 "Em"E2:|

